X: 43519
T: Ymgyrchdon Y Waunlwyd
R: polka
M: 2/4
K: Amajor
ae ce|dB Bd|c/B/A ec|cB Bf/g/|
ae c>e|dB B>d|cA B/A/G|A3-:|
GB B>B|dc c/d/c/B/|Ac/^A/ c>c|ec- ce|
ff/g/ a>f|ec- ce|dB AG|A3:|

